X: 239
T: 240. Nun sich der Tag geendet hat
N: Derived from chor240.krn
C: Johann Sebastian Bach
%%abc-version 2.0
%%abcx-abcm2ps-target-version 5.9.1 (29 Sep 2008)
%%abc-creator hum2abc beta
%%abcx-conversion-date 2019/03/11 17:28:19
%%abc-edited-by Craig Stuart Sapp
%%humdrum-veritas 271131439
%%humdrum-veritas-data 344267642
%%
%%barnumbers 0
L: 1/4
M: C
%%staves [1 2 3 4]
V: 1 clef=treble
V: 2 clef=treble
V: 3 clef=treble-8
V: 4 clef=bass
K: C
[V:1] e [I:setbarnb 1]| 
[V:2] A | 
[V:3] c | 
[V:4] A,,/B,,/ | 
[V:1] ABcc | 
[V:2] EEE/F/=G | 
[V:3] cB-B/A/ G/c/- | 
[V:4] C,/B,,/A,,/^G,,/A,,E,, | 
[V:1] dd!fermata!ee | 
[V:2] AG!fermata!GG | 
[V:3] c/B//A//B!fermata!cc- | 
[V:4] F,,G,,!fermata!C,,C, | 
[V:1] decc | 
[V:2] AEEE | 
[V:3] cB2A- | 
[V:4] ^F,,^G,,A,,/B,,/C,/D,/ | 
[V:1] !fermata!B2ze | 
[V:2] !fermata!E2xB- | 
[V:3] A!fermata!^Gxe | 
[V:4] !fermata!E,2z^G,, | 
[V:1] cBcA | 
[V:2] B/A/^GA/=G/F- | 
[V:3] eeed- | 
[V:4] A,,E,/D,/C,D,/C,/ | 
[V:1] ^GA!fermata!Be | 
[V:2] F/E/ E/^F/!fermata!^GA- | 
[V:3] d/B/c!fermata!BA | 
[V:4] B,,/E,/ C,/A,,/!fermata!E,C, | 
[V:1] dcB3/B/ | 
[V:2] A/^G/AAG | 
[V:3] de=f/d/ B/e//d// | 
[V:4] B,,A,,D,E, | 
[V:1] !fermata!A3 |]  
[V:2] !fermata!E3 |]  
[V:3] !fermata!^c3 |]  
[V:4] !fermata!A,,3 |]  



